Simply-Black-Circles/scalable/apps/android-file-transfer.svg

<svg xmlns="http://www.w3.org/2000/svg" width="48" height="48" viewBox="0 0 12.7 12.7"><defs><linearGradient id="a"><stop offset="0" stop-color="#569914"/><stop offset="1" stop-color="#9cc94b"/></linearGradient></defs><path d="M6.34.07a6.29 6.29 0 0 0-6.29 6.3 6.29 6.29 0 0 0 6.3 6.28 6.29 6.29 0 0 0 6.28-6.29A6.29 6.29 0 0 0 6.34.07zm-.01.94a5.4 5.4 0 0 1 5.4 5.4 5.4 5.4 0 0 1-1.28 3.5c-.05-.26-.08-.5-.18-.81a5.18 5.18 0 0 0-.74-1.43 3.6 3.6 0 0 0-1.44-1.1l.87-1.5a.26.26 0 0 0-.1-.36.26.26 0 0 0-.36.1l-.92 1.6a4.87 4.87 0 0 0-2.46 0L4.2 4.8a.26.26 0 1 0-.46.26l.87 1.5a3.5 3.5 0 0 0-1.44 1.1 4.22 4.22 0 0 0-.74 1.43c-.1.32-.14.58-.18.85a5.4 5.4 0 0 0 .37.4 5.4 5.4 0 0 1-1.7-3.93A5.4 5.4 0 0 1 6.32 1zm-1.04.72L3.17 3.32 5.3 4.9v-.53h2.12v.53l2.11-1.6-2.11-1.58v.53H5.29v-.53zm-.53 6.64a.53.53 0 0 1 .06 0 .53.53 0 0 1 .05.01.53.53 0 0 1 .05.02.53.53 0 0 1 .05.01.53.53 0 0 1 .05.03.53.53 0 0 1 .04.03.53.53 0 0 1 .04.03.53.53 0 0 1 .04.03.53.53 0 0 1 .04.04.53.53 0 0 1 .03.05.53.53 0 0 1 .02.04.53.53 0 0 1 .03.05.53.53 0 0 1 .01.05.53.53 0 0 1 .01.05.53.53 0 0 1 .01.05.53.53 0 0 1 0 .04.53.53 0 0 1 0 .05.53.53 0 0 1 0 .06.53.53 0 0 1-.02.05.53.53 0 0 1-.02.05.53.53 0 0 1-.02.05.53.53 0 0 1-.03.04.53.53 0 0 1-.03.04.53.53 0 0 1-.04.04.53.53 0 0 1-.04.04.53.53 0 0 1-.04.03.53.53 0 0 1-.05.02.53.53 0 0 1-.05.02.53.53 0 0 1-.05.02.53.53 0 0 1-.05.01.53.53 0 0 1-.05 0 .53.53 0 0 1-.04.01.53.53 0 0 1-.05 0 .53.53 0 0 1-.05 0 .53.53 0 0 1-.05-.02.53.53 0 0 1-.05-.02.53.53 0 0 1-.05-.02.53.53 0 0 1-.05-.03.53.53 0 0 1-.04-.03.53.53 0 0 1-.04-.04.53.53 0 0 1-.03-.04.53.53 0 0 1-.03-.04.53.53 0 0 1-.03-.05.53.53 0 0 1-.02-.05.53.53 0 0 1-.02-.05.53.53 0 0 1 0-.05.53.53 0 0 1-.02-.05.53.53 0 0 1 0-.04.53.53 0 0 1 0-.05.53.53 0 0 1 .01-.05.53.53 0 0 1 .02-.05.53.53 0 0 1 .02-.05.53.53 0 0 1 .02-.05.53.53 0 0 1 .03-.05.53.53 0 0 1 .03-.04.53.53 0 0 1 .03-.04.53.53 0 0 1 .04-.03.53.53 0 0 1 .05-.03.53.53 0 0 1 .04-.03.53.53 0 0 1 .05-.02.53.53 0 0 1 .05-.02.53.53 0 0 1 .05-.01.53.53 0 0 1 .06 0 .53.53 0 0 1 .03 0zm3.18 0a.53.53 0 0 1 .05 0 .53.53 0 0 1 .05.01.53.53 0 0 1 .05.02.53.53 0 0 1 .05.01.53.53 0 0 1 .05.03.53.53 0 0 1 .05.03.53.53 0 0 1 .04.03.53.53 0 0 1 .04.03.53.53 0 0 1 .03.04.53.53 0 0 1 .03.05.53.53 0 0 1 .03.04.53.53 0 0 1 .02.05.53.53 0 0 1 .02.05.53.53 0 0 1 0 .05.53.53 0 0 1 .02.05.53.53 0 0 1 0 .04.53.53 0 0 1 0 .05.53.53 0 0 1-.01.06.53.53 0 0 1-.02.05.53.53 0 0 1-.02.05.53.53 0 0 1-.02.05.53.53 0 0 1-.03.04.53.53 0 0 1-.03.04.53.53 0 0 1-.03.04.53.53 0 0 1-.04.04.53.53 0 0 1-.05.03.53.53 0 0 1-.04.02.53.53 0 0 1-.05.02.53.53 0 0 1-.05.02.53.53 0 0 1-.05.01.53.53 0 0 1-.06 0 .53.53 0 0 1-.03.01.53.53 0 0 1-.06 0 .53.53 0 0 1-.05 0 .53.53 0 0 1-.05-.02.53.53 0 0 1-.05-.02.53.53 0 0 1-.05-.02.53.53 0 0 1-.04-.03.53.53 0 0 1-.04-.03.53.53 0 0 1-.04-.04.53.53 0 0 1-.04-.04.53.53 0 0 1-.03-.04.53.53 0 0 1-.02-.05.53.53 0 0 1-.03-.05.53.53 0 0 1-.01-.05.53.53 0 0 1-.01-.05.53.53 0 0 1-.01-.05.53.53 0 0 1 0-.04.53.53 0 0 1 0-.05.53.53 0 0 1 0-.05.53.53 0 0 1 .02-.05.53.53 0 0 1 .02-.05.53.53 0 0 1 .02-.05.53.53 0 0 1 .03-.05.53.53 0 0 1 .03-.04.53.53 0 0 1 .04-.04.53.53 0 0 1 .04-.03.53.53 0 0 1 .04-.03.53.53 0 0 1 .05-.03.53.53 0 0 1 .05-.02.53.53 0 0 1 .05-.02.53.53 0 0 1 .05-.01.53.53 0 0 1 .05 0 .53.53 0 0 1 .04 0z" fill="#1a1a1a"/></svg>

<?xml version="1.0" encoding="UTF-8" standalone="no"?>
<svg
   xmlns:dc="http://purl.org/dc/elements/1.1/"
   xmlns:cc="http://creativecommons.org/ns#"
   xmlns:rdf="http://www.w3.org/1999/02/22-rdf-syntax-ns#"
   xmlns:svg="http://www.w3.org/2000/svg"
   xmlns="http://www.w3.org/2000/svg"
   xmlns:sodipodi="http://sodipodi.sourceforge.net/DTD/sodipodi-0.dtd"
   xmlns:inkscape="http://www.inkscape.org/namespaces/inkscape"
   width="48"
   height="48"
   viewBox="0 0 12.7 12.7"
   version="1.1"
   id="svg11"
   sodipodi:docname="android-file-transfer.svg"
   inkscape:version="0.92.4 (5da689c313, 2019-01-14)">
  <metadata
     id="metadata15">
    <rdf:RDF>
      <cc:Work
         rdf:about="">
        <dc:format>image/svg+xml</dc:format>
        <dc:type
           rdf:resource="http://purl.org/dc/dcmitype/StillImage" />
        <dc:title></dc:title>
      </cc:Work>
    </rdf:RDF>
  </metadata>
  <sodipodi:namedview
     pagecolor="#ffffff"
     bordercolor="#666666"
     borderopacity="1"
     objecttolerance="10"
     gridtolerance="10"
     guidetolerance="10"
     inkscape:pageopacity="0"
     inkscape:pageshadow="2"
     inkscape:window-width="1087"
     inkscape:window-height="480"
     id="namedview13"
     showgrid="false"
     inkscape:zoom="4.9166667"
     inkscape:cx="2.1355932"
     inkscape:cy="24"
     inkscape:window-x="0"
     inkscape:window-y="25"
     inkscape:window-maximized="0"
     inkscape:current-layer="svg11" />
  <defs
     id="defs7">
    <linearGradient
       id="a">
      <stop
         offset="0"
         stop-color="#569914"
         id="stop2" />
      <stop
         offset="1"
         stop-color="#9cc94b"
         id="stop4" />
    </linearGradient>
  </defs>
  <path
     d="M 6.34,0.07 A 6.29,6.29 0 0 0 0.05,6.37 6.29,6.29 0 0 0 6.35,12.65 6.29,6.29 0 0 0 12.63,6.36 6.29,6.29 0 0 0 6.34,0.07 Z M 6.33,1.01 a 5.4,5.4 0 0 1 5.4,5.4 5.4,5.4 0 0 1 -1.28,3.5 C 10.4,9.65 10.37,9.41 10.27,9.1 A 5.18,5.18 0 0 0 9.53,7.67 3.6,3.6 0 0 0 8.09,6.57 L 8.96,5.07 A 0.26,0.26 0 0 0 8.86,4.71 0.26,0.26 0 0 0 8.5,4.81 l -0.92,1.6 a 4.87,4.87 0 0 0 -2.46,0 L 4.2,4.8 A 0.2641969,0.2641969 0 1 0 3.74,5.06 l 0.87,1.5 A 3.5,3.5 0 0 0 3.17,7.66 4.22,4.22 0 0 0 2.43,9.09 C 2.33,9.41 2.29,9.67 2.25,9.94 A 5.4,5.4 0 0 0 2.62,10.34 5.4,5.4 0 0 1 0.92,6.41 5.4,5.4 0 0 1 6.32,1 Z M 5.29,1.73 3.17,3.32 5.3,4.9 V 4.37 H 7.42 V 4.9 L 9.53,3.3 7.42,1.72 V 2.25 H 5.29 V 1.72 Z M 4.76,8.37 a 0.53,0.53 0 0 1 0.06,0 0.53,0.53 0 0 1 0.05,0.01 0.53,0.53 0 0 1 0.05,0.02 0.53,0.53 0 0 1 0.05,0.01 0.53,0.53 0 0 1 0.05,0.03 0.53,0.53 0 0 1 0.04,0.03 0.53,0.53 0 0 1 0.04,0.03 0.53,0.53 0 0 1 0.04,0.03 0.53,0.53 0 0 1 0.04,0.04 0.53,0.53 0 0 1 0.03,0.05 0.53,0.53 0 0 1 0.02,0.04 0.53,0.53 0 0 1 0.03,0.05 0.53,0.53 0 0 1 0.01,0.05 0.53,0.53 0 0 1 0.01,0.05 0.53,0.53 0 0 1 0.01,0.05 0.53,0.53 0 0 1 0,0.04 0.53,0.53 0 0 1 0,0.05 0.53,0.53 0 0 1 0,0.06 A 0.53,0.53 0 0 1 5.27,9.06 0.53,0.53 0 0 1 5.25,9.11 0.53,0.53 0 0 1 5.23,9.16 0.53,0.53 0 0 1 5.2,9.2 0.53,0.53 0 0 1 5.17,9.24 0.53,0.53 0 0 1 5.13,9.28 0.53,0.53 0 0 1 5.09,9.32 0.53,0.53 0 0 1 5.05,9.35 0.53,0.53 0 0 1 5,9.37 0.53,0.53 0 0 1 4.95,9.39 0.53,0.53 0 0 1 4.9,9.41 0.53,0.53 0 0 1 4.85,9.42 0.53,0.53 0 0 1 4.8,9.42 0.53,0.53 0 0 1 4.76,9.43 0.53,0.53 0 0 1 4.71,9.43 0.53,0.53 0 0 1 4.66,9.43 0.53,0.53 0 0 1 4.61,9.41 0.53,0.53 0 0 1 4.56,9.39 0.53,0.53 0 0 1 4.51,9.37 0.53,0.53 0 0 1 4.46,9.34 0.53,0.53 0 0 1 4.42,9.31 0.53,0.53 0 0 1 4.38,9.27 0.53,0.53 0 0 1 4.35,9.23 0.53,0.53 0 0 1 4.32,9.19 0.53,0.53 0 0 1 4.29,9.14 0.53,0.53 0 0 1 4.27,9.09 0.53,0.53 0 0 1 4.25,9.04 0.53,0.53 0 0 1 4.25,8.99 0.53,0.53 0 0 1 4.23,8.94 0.53,0.53 0 0 1 4.23,8.9 0.53,0.53 0 0 1 4.23,8.85 0.53,0.53 0 0 1 4.24,8.8 0.53,0.53 0 0 1 4.26,8.75 0.53,0.53 0 0 1 4.28,8.7 0.53,0.53 0 0 1 4.3,8.65 0.53,0.53 0 0 1 4.33,8.6 0.53,0.53 0 0 1 4.36,8.56 0.53,0.53 0 0 1 4.39,8.52 0.53,0.53 0 0 1 4.43,8.49 0.53,0.53 0 0 1 4.48,8.46 0.53,0.53 0 0 1 4.52,8.43 0.53,0.53 0 0 1 4.57,8.41 0.53,0.53 0 0 1 4.62,8.39 0.53,0.53 0 0 1 4.67,8.38 a 0.53,0.53 0 0 1 0.06,0 0.53,0.53 0 0 1 0.03,0 z m 3.18,0 a 0.53,0.53 0 0 1 0.05,0 0.53,0.53 0 0 1 0.05,0.01 0.53,0.53 0 0 1 0.05,0.02 0.53,0.53 0 0 1 0.05,0.01 0.53,0.53 0 0 1 0.05,0.03 0.53,0.53 0 0 1 0.05,0.03 0.53,0.53 0 0 1 0.04,0.03 0.53,0.53 0 0 1 0.04,0.03 0.53,0.53 0 0 1 0.03,0.04 0.53,0.53 0 0 1 0.03,0.05 0.53,0.53 0 0 1 0.03,0.04 0.53,0.53 0 0 1 0.02,0.05 0.53,0.53 0 0 1 0.02,0.05 0.53,0.53 0 0 1 0,0.05 0.53,0.53 0 0 1 0.02,0.05 0.53,0.53 0 0 1 0,0.04 0.53,0.53 0 0 1 0,0.05 A 0.53,0.53 0 0 1 8.46,9.01 0.53,0.53 0 0 1 8.44,9.06 0.53,0.53 0 0 1 8.42,9.11 0.53,0.53 0 0 1 8.4,9.16 0.53,0.53 0 0 1 8.37,9.2 0.53,0.53 0 0 1 8.34,9.24 0.53,0.53 0 0 1 8.31,9.28 0.53,0.53 0 0 1 8.27,9.32 0.53,0.53 0 0 1 8.22,9.35 0.53,0.53 0 0 1 8.18,9.37 0.53,0.53 0 0 1 8.13,9.39 0.53,0.53 0 0 1 8.08,9.41 0.53,0.53 0 0 1 8.03,9.42 a 0.53,0.53 0 0 1 -0.06,0 0.53,0.53 0 0 1 -0.03,0.01 0.53,0.53 0 0 1 -0.06,0 0.53,0.53 0 0 1 -0.05,0 A 0.53,0.53 0 0 1 7.78,9.41 0.53,0.53 0 0 1 7.73,9.39 0.53,0.53 0 0 1 7.68,9.37 0.53,0.53 0 0 1 7.64,9.34 0.53,0.53 0 0 1 7.6,9.31 0.53,0.53 0 0 1 7.56,9.27 0.53,0.53 0 0 1 7.52,9.23 0.53,0.53 0 0 1 7.49,9.19 0.53,0.53 0 0 1 7.47,9.14 0.53,0.53 0 0 1 7.44,9.09 0.53,0.53 0 0 1 7.43,9.04 0.53,0.53 0 0 1 7.42,8.99 0.53,0.53 0 0 1 7.41,8.94 0.53,0.53 0 0 1 7.41,8.9 0.53,0.53 0 0 1 7.41,8.85 0.53,0.53 0 0 1 7.41,8.8 0.53,0.53 0 0 1 7.43,8.75 0.53,0.53 0 0 1 7.45,8.7 0.53,0.53 0 0 1 7.47,8.65 0.53,0.53 0 0 1 7.5,8.6 0.53,0.53 0 0 1 7.53,8.56 0.53,0.53 0 0 1 7.57,8.52 0.53,0.53 0 0 1 7.61,8.49 0.53,0.53 0 0 1 7.65,8.46 0.53,0.53 0 0 1 7.7,8.43 0.53,0.53 0 0 1 7.75,8.41 0.53,0.53 0 0 1 7.8,8.39 0.53,0.53 0 0 1 7.85,8.38 a 0.53,0.53 0 0 1 0.05,0 0.53,0.53 0 0 1 0.04,0 z"
     id="path9"
     inkscape:connector-curvature="0"
     style="fill:#1a1a1a" />
</svg>
